X: 14
T: Kto będzie w Twoim mieszkaniu przebywał?
C: Mikołaj Gomółka
%%abc-version 2.0
%%abcx-abcm2ps-target-version 5.9.1 (29 Sep 2008)
%%abc-creator hum2abc beta
%%abcx-conversion-date 2021/10/04 07:59:09
%%abc-edited-by Leszek Kubiak
%%abcx-initial-encoding-date data 2020-02-04
%%humdrum-veritas 2331077581
%%humdrum-veritas-data 4079695164
%%linebreak <none>
%%barnumbers 0
L: 1/4
M: C|
N: Derived from pl-wn--sd-xvi-qu-273--015_gomolka-mikolaj--kto-bedzie-w-twoim-mieszkaniu-przebywal.krn
%%staves [1 2 3 4]
V: 1 clef=treble
V: 2
V: 3 clef=alto
V: 4
K: F
[V:1] G2>A2Bcd4 [|] 
[V:2] B4B2B2 [|] 
[V:3] G4G2F2 [|] 
[V:4] G,2>F,2G,A,B,2 [|] 
[V:1] c2d2f4 [|] 
[V:2] B2AGF2c2 [|] 
[V:3] E4D2A2 [|] 
[V:4] G,2A,2B,2F,2 [|] 
[V:1] f2d2f2 [|] 
[V:2] d2c2B2F2 [|] 
[V:3] F2A2GFFE/D/ [|] 
[V:4] B,2A,2B,2D2 [|] 
[V:1] e4d2Bc2 [|] 
[V:2] G2>A2B2B2 [|] 
[V:3] E2>F2G2F3 [|] 
[V:4] C4B,2B,2 [|] 
[V:1] cc2c2B2 [|] 
[V:2] A2EF2<G2F [|] 
[V:3] EED/C/D4 [|] 
[V:4] F,2B,2G,4 [|] 
[V:1] c2c2c2c2 [|] 
[V:2] E2G2G2A4 [|] 
[V:3] C2E2E2F2 [|] 
[V:4] C,2C2C2A,2 [|] 
[V:1] A2B2c2e2 [|] 
[V:2] GFG2c2 [|] 
[V:3] F2EDE2G2 [|] 
[V:4] D2D2C2C3 [|] 
[V:1] e2c2f6 [|] 
[V:2] c2>B2A6 [|] 
[V:3] G2A2>G2FE [|] 
[V:4] B,A,G,F,E,D,C, [|] 
[V:1] ede2f3 [|] 
[V:2] B2cBAG [|] 
[V:3] F4G2C2 [|] 
[V:4] D,4C,2F,2 [|] 
[V:1] edcdcBA [|] 
[V:2] F2B2>A2G2 [|] 
[V:3] D4D4 [|] 
[V:4] B,2>A,2G,3F, [|] 
[V:1] G2c4B2 [|] 
[V:2] CDED/C/DG2F [|] 
[V:3] E4D4 [|] 
[V:4] E,2C,2G,4 [|] 
[V:1] c32 [|] 
[V:2] E32 [|] 
[V:3] !fermata!C16!fermata!C16 [|] 
[V:4] C,32 [|] 


